X: 11
T:Little Stack of Barley
R:hornpipe
M:C|
L:1/8
K:G
gf|eged BedB|AGEG AcBA|GFGA BA (3Bcd|eAAG A2 (3Bcd|
efed BedB|AGEG AcBA|GFGA  (3Bcd Ac|BGGF G2:|
A|BGBd g2fg|agfg e2d2|g2fg edBd|(3efg dB A3z|
agfa gedB|AGEG AcBA|GFGA  (3Bcd Ac|BGGF G3:|
